src/Assets/icons/05-1-h5p-video/h5p-video-icon-nobg.svg

<svg viewBox="0 0 2000 2000" xmlns="http://www.w3.org/2000/svg" xml:space="preserve" style="fill-rule:evenodd;clip-rule:evenodd;stroke-linecap:round;stroke-linejoin:round;stroke-miterlimit:1.5">
    <path style="fill:none" d="M2208.33 0h2000v2000h-2000z" transform="translate(-2208.33)"/>
    <path d="M1066.94 950.354a1.01 1.01 0 0 0-1.01-1.013H878.572c-.559 0-1.013.454-1.013 1.013v48.633c0 .559.454 1.013 1.013 1.013h187.358c.56 0 1.01-.454 1.01-1.013v-48.633Z" style="fill:#172d4f" transform="translate(-1831.847 -1003.12) scale(2.91267)"/>
    <path d="M1066.94 956.94c0-4.194-.72-7.599-1.62-7.599H879.181c-.895 0-1.622 3.405-1.622 7.599v35.461c0 4.194.727 7.599 1.622 7.599h186.139c.9 0 1.62-3.405 1.62-7.599V956.94Z" style="fill:#172d4f" transform="matrix(6.65219 0 0 1.4202 -5467.587 529.425)"/>
    <path d="M1302.5 578.274c0-11.553-13.37-20.933-29.84-20.933H671.841c-16.469 0-29.841 9.38-29.841 20.933v376.793C642 966.62 655.372 976 671.841 976h600.819c16.47 0 29.84-9.38 29.84-20.933V578.274Z" style="fill:#172d4f;stroke:#172d4f;stroke-width:11.62px" transform="matrix(2.91267 0 0 4.15221 -1831.847 -2212.927)"/>
    <path d="M1302.5 569.901c0-6.932-7.92-12.56-17.68-12.56H659.686c-9.761 0-17.686 5.628-17.686 12.56V963.44c0 6.932 7.925 12.56 17.686 12.56h625.134c9.76 0 17.68-5.628 17.68-12.56V569.901Z" style="fill:#cdd7e4" transform="matrix(2.72148 0 0 3.83226 -1645.961 -1967.613)"/>
    <path d="M445.74 1243.6V756.99h150.85v209.25h163.02V756.99h121.75l-1.307 5.475c-2.539 10.635-47.071 207.77-52.49 232.36-3.023 13.715-4.904 25.535-4.181 26.255.722.72 30.514 5.34 66.205 10.26l64.891 8.95 9.895-11.58c27.937-32.684 75.417-33.24 102.837-1.2 35.94 41.98 4.73 107.54-51.08 107.29-19.798-.09-35.654-7.38-50.542-23.24l-11.784-12.55-64.806 9.19c-35.644 5.05-65.351 9.73-66.017 10.39-2.54 2.54 10.5 34.53 20.974 51.45 19.244 31.09 42.436 50.85 76.365 65.07 8.629 3.61 16.146 7 16.703 7.53.557.53-39.132.96-88.2.96H759.61v-180.05H596.59v180.05H445.74Z" style="fill:#fff;fill-rule:nonzero;stroke:#fff;stroke-width:2.43px;stroke-linecap:butt;stroke-linejoin:miter;stroke-miterlimit:4" transform="matrix(1.54652 0 0 1.54652 -536.022 -883.344)"/>
    <path d="M1113.7 1241.5c1.27-1.17 7.9-3.95 14.73-6.16 58.23-18.88 103.08-90.97 103.13-165.77.03-43.19-12.99-76.781-41.35-106.631-19.26-20.271-39.73-33.177-66.9-42.178-17.86-5.915-22.88-6.462-60.83-6.629-38.79-.17-42.69.239-62.676 6.595-11.722 3.727-22.957 7.407-24.967 8.178-2.36.906-3.274.23-2.58-1.91.59-1.822 4.529-18.367 8.753-36.767l7.679-33.455h220.991v-100.35l113.75 1.212c106.04 1.131 115.07 1.563 133.21 6.383 50.45 13.403 80.17 40.402 95.38 86.669 5.61 17.083 6.42 23.632 6.6 53.528.15 25.428-.89 38.073-4.09 49.878-13.92 51.407-51 87.447-103.98 101.067-19.47 5.01-65.58 8.18-121.05 8.32l-41.97.11v180.04h-88.08c-50.62 0-87.09-.9-85.76-2.13h.01Zm261.63-281.61c16.96-5.037 32.19-19.719 36.3-35.012 7.73-28.713-8.27-57.752-36.21-65.695-4.84-1.376-26.6-3.201-48.34-4.056l-39.54-1.553v113.44l37.32-1.609c22.55-.973 42.52-3.155 50.47-5.514v-.001Z" style="fill:#fff;fill-rule:nonzero;stroke:#fff;stroke-width:2.43px;stroke-linecap:butt;stroke-linejoin:miter;stroke-miterlimit:4" transform="matrix(1.54652 0 0 1.54652 -536.022 -883.344)"/>
    <circle cx="289.99" cy="272" r="96" style="fill:#e5bc71" transform="matrix(2.67795 0 0 2.67795 237.301 628.686)"/>
    <path d="m990.236 816 75.714 151.426H914.523L990.236 816Z" style="fill:#172d4f" transform="matrix(0 2.0186 -1.68423 0 2547.794 -636.91)"/>
</svg>

<?xml version="1.0" encoding="UTF-8" standalone="no"?>
<!DOCTYPE svg PUBLIC "-//W3C//DTD SVG 1.1//EN" "http://www.w3.org/Graphics/SVG/1.1/DTD/svg11.dtd">
<svg width="100%" height="100%" viewBox="0 0 2000 2000" version="1.1" xmlns="http://www.w3.org/2000/svg" xmlns:xlink="http://www.w3.org/1999/xlink" xml:space="preserve" xmlns:serif="http://www.serif.com/" style="fill-rule:evenodd;clip-rule:evenodd;stroke-linecap:round;stroke-linejoin:round;stroke-miterlimit:1.5;">
    <g id="screen_button-icon" transform="matrix(1,0,0,1,-2208.33,0)">
        <rect x="2208.33" y="0" width="2000" height="2000" style="fill:none;"/>
        <g id="Fernseher" transform="matrix(2.91267,0,0,2.91267,376.483,-1003.12)">
            <path d="M1066.94,950.354C1066.94,949.795 1066.49,949.341 1065.93,949.341L878.572,949.341C878.013,949.341 877.559,949.795 877.559,950.354L877.559,998.987C877.559,999.546 878.013,1000 878.572,1000L1065.93,1000C1066.49,1000 1066.94,999.546 1066.94,998.987L1066.94,950.354Z" style="fill:rgb(23,45,79);"/>
            <g transform="matrix(2.28388,0,0,0.487591,-1248.25,526.165)">
                <path d="M1066.94,956.94C1066.94,952.746 1066.22,949.341 1065.32,949.341L879.181,949.341C878.286,949.341 877.559,952.746 877.559,956.94L877.559,992.401C877.559,996.595 878.286,1000 879.181,1000L1065.32,1000C1066.22,1000 1066.94,996.595 1066.94,992.401L1066.94,956.94Z" style="fill:rgb(23,45,79);"/>
            </g>
            <g transform="matrix(1,0,0,1.42557,0,-415.36)">
                <path d="M1302.5,578.274C1302.5,566.721 1289.13,557.341 1272.66,557.341L671.841,557.341C655.372,557.341 642,566.721 642,578.274L642,955.067C642,966.62 655.372,976 671.841,976L1272.66,976C1289.13,976 1302.5,966.62 1302.5,955.067L1302.5,578.274Z" style="fill:rgb(23,45,79);stroke:rgb(23,45,79);stroke-width:11.62px;"/>
            </g>
            <g transform="matrix(0.934359,0,0,1.31572,63.8197,-331.137)">
                <path d="M1302.5,569.901C1302.5,562.969 1294.58,557.341 1284.82,557.341L659.686,557.341C649.925,557.341 642,562.969 642,569.901L642,963.44C642,970.372 649.925,976 659.686,976L1284.82,976C1294.58,976 1302.5,970.372 1302.5,963.44L1302.5,569.901Z" style="fill:rgb(205,215,228);"/>
            </g>
            <g id="Videobutton" transform="matrix(1.2505,0,0,1.2505,-221.213,-446.76)">
                <g transform="matrix(0.260825,0,0,0.260825,958.2,815.024)">
                    <g transform="matrix(1,0,0,1,-1000,-1000)">
                        <g transform="matrix(1,0,0,1,2.27374e-13,-1)">
                            <g>
                                <g id="H5P">
                                    <g transform="matrix(1.62791,0,0,1.62791,-631.472,-627.962)">
                                        <path d="M445.74,1243.6L445.74,756.99L596.59,756.99L596.59,966.24L759.61,966.24L759.61,756.99L881.36,756.99L880.053,762.465C877.514,773.1 832.982,970.235 827.563,994.825C824.54,1008.54 822.659,1020.36 823.382,1021.08C824.104,1021.8 853.896,1026.42 889.587,1031.34L954.478,1040.29L964.373,1028.71C992.31,996.026 1039.79,995.47 1067.21,1027.51C1103.15,1069.49 1071.94,1135.05 1016.13,1134.8C996.332,1134.71 980.476,1127.42 965.588,1111.56L953.804,1099.01L888.998,1108.2C853.354,1113.25 823.647,1117.93 822.981,1118.59C820.441,1121.13 833.481,1153.12 843.955,1170.04C863.199,1201.13 886.391,1220.89 920.32,1235.11C928.949,1238.72 936.466,1242.11 937.023,1242.64C937.58,1243.17 897.891,1243.6 848.823,1243.6L759.61,1243.6L759.61,1063.55L596.59,1063.55L596.59,1243.6L445.74,1243.6Z" style="fill:white;fill-rule:nonzero;stroke:white;stroke-width:2.43px;stroke-linecap:butt;stroke-linejoin:miter;stroke-miterlimit:4;"/>
                                    </g>
                                    <g transform="matrix(1.62791,0,0,1.62791,-631.472,-627.962)">
                                        <path d="M1113.7,1241.5C1114.97,1240.33 1121.6,1237.55 1128.43,1235.34C1186.66,1216.46 1231.51,1144.37 1231.56,1069.57C1231.59,1026.38 1218.57,992.789 1190.21,962.939C1170.95,942.668 1150.48,929.762 1123.31,920.761C1105.45,914.846 1100.43,914.299 1062.48,914.132C1023.69,913.962 1019.79,914.371 999.804,920.727C988.082,924.454 976.847,928.134 974.837,928.905C972.477,929.811 971.563,929.135 972.257,926.995C972.847,925.173 976.786,908.628 981.01,890.228L988.689,856.773L1209.68,856.773L1209.68,756.423L1323.43,757.635C1429.47,758.766 1438.5,759.198 1456.64,764.018C1507.09,777.421 1536.81,804.42 1552.02,850.687C1557.63,867.77 1558.44,874.319 1558.62,904.215C1558.77,929.643 1557.73,942.288 1554.53,954.093C1540.61,1005.5 1503.53,1041.54 1450.55,1055.16C1431.08,1060.17 1384.97,1063.34 1329.5,1063.48L1287.53,1063.59L1287.53,1243.63L1199.45,1243.63C1148.83,1243.63 1112.36,1242.73 1113.69,1241.5L1113.7,1241.5ZM1375.33,959.89C1392.29,954.853 1407.52,940.171 1411.63,924.878C1419.36,896.165 1403.36,867.126 1375.42,859.183C1370.58,857.807 1348.82,855.982 1327.08,855.127L1287.54,853.574L1287.54,967.014L1324.86,965.405C1347.41,964.432 1367.38,962.25 1375.33,959.891L1375.33,959.89Z" style="fill:white;fill-rule:nonzero;stroke:white;stroke-width:2.43px;stroke-linecap:butt;stroke-linejoin:miter;stroke-miterlimit:4;"/>
                                    </g>
                                </g>
                            </g>
                        </g>
                    </g>
                </g>
                <g transform="matrix(0.735237,0,0,0.735237,744.989,805.281)">
                    <circle cx="289.99" cy="272" r="96" style="fill:rgb(229,188,113);"/>
                </g>
                <g transform="matrix(3.39355e-17,0.55421,-0.462409,2.83144e-17,1379.34,457.809)">
                    <path d="M990.236,816L1065.95,967.426L914.523,967.426L990.236,816Z" style="fill:rgb(23,45,79);"/>
                </g>
            </g>
        </g>
    </g>
</svg>
